svg/u1f4d1.svg

<svg viewBox="0 0 128 128" xmlns="http://www.w3.org/2000/svg">
  <g>
    <path d="M106.75,123.88H32.94c-2.21,0-4-1.79-4-4V14.79c0-2.21,1.79-4,4-4h73.82c2.21,0,4,1.79,4,4v105.09 C110.75,122.09,108.96,123.88,106.75,123.88z" fill="#FFFFFF"/>
    <path d="M106.75,10.79h-6.89v3h6.89c0.55,0,1,0.45,1,1v105.09c0,0.55-0.45,1-1,1H32.94c-0.55,0-1-0.45-1-1 v-5.75h-3v5.75c0,2.21,1.79,4,4,4h73.82c2.21,0,4-1.79,4-4V14.79C110.75,12.59,108.96,10.79,106.75,10.79L106.75,10.79z" fill="#6FBFF0"/>
    <path d="M95.86,114.13H18.05c-2.21,0-4-1.79-4-4V8c0-2.21,1.79-4,4-4h77.81c2.21,0,4,1.79,4,4v102.13 C99.86,112.34,98.07,114.13,95.86,114.13z" fill="#FFFFFF"/>
    <path d="M117.95,52.62c0,0.63-0.38,1.18-0.93,1.33c-1.39,0.37-4.25,0.98-8,0.98H96.84 c-0.48,0-0.95-0.19-1.32-0.55l-4.07-3.89c-0.96-0.92-0.96-2.59,0-3.51l4.07-3.89c0.37-0.35,0.84-0.55,1.32-0.55h15.53 c1.58,0,3.06-0.3,4.1-0.57c0.76-0.2,1.49,0.45,1.49,1.33V52.62z" fill="#FFD54F"/>
    <path d="M117.35,42.11c-0.1-0.07-0.21-0.13-0.33-0.16c-0.01,2.02-0.07,4.04-0.07,6.06c0,1.53,0,3.06,0,4.6 c0,0.2-0.11,0.34-0.18,0.36c-1.33,0.36-4.11,0.95-7.75,0.95H96.84c-0.22,0-0.45-0.1-0.63-0.27c-1.16-1.11-2.32-2.22-3.48-3.33 c-0.52-0.5-1.06-0.94-1.37-1.62c-0.19-0.43-0.28-0.91-0.22-1.38c-0.01,0.11-0.16,0.26-0.2,0.37c-0.05,0.12-0.08,0.26-0.12,0.38 c-0.07,0.27-0.1,0.56-0.08,0.84c0.04,0.58,0.28,1.15,0.71,1.56l4.07,3.89c0.37,0.35,0.84,0.55,1.32,0.55h12.18 c3.75,0,6.61-0.61,8-0.98c0.55-0.15,0.93-0.7,0.93-1.33v-9.33C117.95,42.85,117.72,42.37,117.35,42.11z" fill="#F3AB47"/>
    <path d="M117.95,95.16c0,0.63-0.38,1.18-0.93,1.33c-1.39,0.37-4.25,0.98-8,0.98H96.84 c-0.48,0-0.95-0.19-1.32-0.55l-4.07-3.89c-0.96-0.92-0.96-2.59,0-3.51l4.07-3.89c0.37-0.35,0.84-0.55,1.32-0.55h15.53 c1.58,0,3.06-0.3,4.1-0.57c0.76-0.2,1.49,0.45,1.49,1.33V95.16z" fill="#0091EA"/>
    <path d="M117.35,84.64c-0.1-0.07-0.21-0.13-0.33-0.16c-0.01,2.02-0.07,4.04-0.07,6.06c0,1.53,0,3.06,0,4.6 c0,0.2-0.11,0.34-0.18,0.36c-1.33,0.36-4.11,0.95-7.75,0.95H96.84c-0.22,0-0.45-0.1-0.63-0.27c-1.16-1.11-2.32-2.22-3.48-3.33 c-0.52-0.5-1.06-0.94-1.37-1.62c-0.19-0.43-0.28-0.91-0.22-1.38c-0.01,0.11-0.16,0.26-0.2,0.37c-0.05,0.12-0.08,0.26-0.12,0.38 c-0.07,0.27-0.1,0.56-0.08,0.84c0.04,0.58,0.28,1.15,0.71,1.56l4.07,3.89c0.37,0.35,0.84,0.55,1.32,0.55h12.18 c3.75,0,6.61-0.61,8-0.98c0.55-0.15,0.93-0.7,0.93-1.33c0,0,0-9.33,0-9.33C117.95,85.38,117.72,84.91,117.35,84.64z" fill="#01579B"/>
    <path d="M17.13,10.79c-0.01,0.09,11.05,0.17,11.05,0.26l0.76,27.79v78.34h69.98 c2.21,0,4-1.79,4-4V11.05c0-0.09-0.02-0.17-0.03-0.26H17.13z" opacity="0.25" fill="#212121"/>
    <path d="M95.86,114.13H18.05c-2.21,0-4-1.79-4-4V8c0-2.21,1.79-4,4-4h77.81c2.21,0,4,1.79,4,4v102.13 C99.86,112.34,98.07,114.13,95.86,114.13z" fill="#FFFFFF"/>
    <path d="M95.86,7c0.55,0,1,0.45,1,1v102.13c0,0.55-0.45,1-1,1H18.05c-0.55,0-1-0.45-1-1V8 c0-0.55,0.45-1,1-1H95.86 M95.86,4H18.05c-2.21,0-4,1.79-4,4v102.13c0,2.21,1.79,4,4,4h77.81c2.21,0,4-1.79,4-4V8 C99.86,5.79,98.07,4,95.86,4L95.86,4z" fill="#6FBFF0"/>
    <g>
      <line fill="none" stroke="#B0BEC5" stroke-width="3.8648" stroke-linecap="round" stroke-miterlimit="10" x1="27.11" x2="84.22" y1="30.48" y2="30.48"/>
      <line fill="none" stroke="#B0BEC5" stroke-width="3.8648" stroke-linecap="round" stroke-miterlimit="10" x1="27.11" x2="84.22" y1="44.25" y2="44.25"/>
      <line fill="none" stroke="#B0BEC5" stroke-width="3.8648" stroke-linecap="round" stroke-miterlimit="10" x1="27.11" x2="84.22" y1="58.03" y2="58.03"/>
      <line fill="none" stroke="#B0BEC5" stroke-width="3.8648" stroke-linecap="round" stroke-miterlimit="10" x1="27.11" x2="84.22" y1="71.81" y2="71.81"/>
      <line fill="none" stroke="#B0BEC5" stroke-width="3.8648" stroke-linecap="round" stroke-miterlimit="10" x1="27.11" x2="51.54" y1="85.58" y2="85.58"/>
    </g>
    <path d="M116.09,33.46c0,0.63-0.38,1.18-0.93,1.33c-1.39,0.37-4.25,0.98-8,0.98H94.98 c-0.48,0-0.95-0.19-1.32-0.55l-4.07-3.89c-0.96-0.92-0.96-2.59,0-3.51l4.07-3.89c0.37-0.35,0.84-0.55,1.32-0.55h15.53 c1.58,0,3.06-0.3,4.1-0.57c0.76-0.2,1.49,0.45,1.49,1.33V33.46z" fill="#F44336"/>
    <path d="M116.09,76c0,0.63-0.38,1.18-0.93,1.33c-1.39,0.37-4.25,0.98-8,0.98H94.98 c-0.48,0-0.95-0.19-1.32-0.55l-4.07-3.89c-0.96-0.92-0.96-2.59,0-3.51l4.07-3.89c0.37-0.35,0.84-0.55,1.32-0.55h15.53 c1.58,0,3.06-0.3,4.1-0.57c0.76-0.2,1.49,0.45,1.49,1.33V76z" fill="#9CCC65"/>
    <path d="M115.5,22.96c-0.1-0.07-0.21-0.13-0.33-0.16c-0.01,2.02-0.07,4.04-0.07,6.06c0,1.53,0,3.06,0,4.6 c0,0.2-0.11,0.34-0.18,0.36c-1.33,0.36-4.11,0.95-7.75,0.95H94.98c-0.22,0-0.45-0.1-0.63-0.27c-1.16-1.11-2.32-2.22-3.48-3.33 c-0.52-0.5-1.06-0.94-1.37-1.62c-0.19-0.43-0.28-0.91-0.22-1.38c-0.01,0.11-0.16,0.26-0.2,0.37c-0.05,0.12-0.08,0.26-0.12,0.38 c-0.07,0.27-0.1,0.56-0.08,0.84c0.04,0.58,0.28,1.15,0.71,1.56l4.07,3.89c0.37,0.35,0.84,0.55,1.32,0.55h12.18 c3.75,0,6.61-0.61,8-0.98c0.55-0.15,0.93-0.7,0.93-1.33c0,0,0-9.33,0-9.33C116.09,23.7,115.86,23.22,115.5,22.96z" fill="#C62828"/>
    <path d="M115.5,65.48c-0.1-0.07-0.21-0.13-0.33-0.16c-0.01,2.02-0.07,4.04-0.07,6.06c0,1.53,0,3.06,0,4.6 c0,0.2-0.11,0.34-0.18,0.36c-1.33,0.36-4.11,0.95-7.75,0.95H94.98c-0.22,0-0.45-0.1-0.63-0.27c-1.16-1.11-2.32-2.22-3.48-3.33 c-0.52-0.5-1.06-0.94-1.37-1.62c-0.19-0.43-0.28-0.91-0.22-1.38c-0.01,0.11-0.16,0.26-0.2,0.37c-0.05,0.12-0.08,0.26-0.12,0.38 c-0.07,0.27-0.1,0.56-0.08,0.84c0.04,0.58,0.28,1.15,0.71,1.56l4.07,3.89c0.37,0.35,0.84,0.55,1.32,0.55h12.18 c3.75,0,6.61-0.61,8-0.98c0.55-0.15,0.93-0.7,0.93-1.33v-9.33C116.09,66.22,115.86,65.74,115.5,65.48z" fill="#7CB342"/>
  </g>
</svg>

<svg viewBox="0 0 128 128" xmlns="http://www.w3.org/2000/svg">
  <defs/>
  <path d="M106.75,123.88 L32.94,123.88 C30.73,123.88 28.94,122.09 28.94,119.88 L28.94,14.79 C28.94,12.58 30.73,10.79 32.94,10.79 L106.76,10.79 C108.97,10.79 110.76,12.58 110.76,14.79 L110.76,119.88 C110.75,122.09 108.96,123.88 106.75,123.88 Z" fill="#FFFFFF"/>
  <path d="M106.75,10.79 L99.86,10.79 L99.86,13.79 L106.75,13.79 C107.3,13.79 107.75,14.24 107.75,14.79 L107.75,119.88 C107.75,120.43 107.3,120.88 106.75,120.88 L32.94,120.88 C32.39,120.88 31.94,120.43 31.94,119.88 L31.94,114.13 L28.94,114.13 L28.94,119.88 C28.94,122.09 30.73,123.88 32.94,123.88 L106.76,123.88 C108.97,123.88 110.76,122.09 110.76,119.88 L110.76,14.79 C110.75,12.59 108.96,10.79 106.75,10.79 L106.75,10.79 Z" fill="#6FBFF0"/>
  <path d="M95.86,114.13 L18.05,114.13 C15.84,114.13 14.05,112.34 14.05,110.13 L14.05,8 C14.05,5.79 15.84,4 18.05,4 L95.86,4 C98.07,4 99.86,5.79 99.86,8 L99.86,110.13 C99.86,112.34 98.07,114.13 95.86,114.13 Z" fill="#FFFFFF"/>
  <path d="M117.95,52.62 C117.95,53.25 117.57,53.8 117.02,53.95 C115.63,54.32 112.77,54.93 109.02,54.93 L96.84,54.93 C96.36,54.93 95.89,54.74 95.52,54.38 L91.45,50.49 C90.49,49.57 90.49,47.9 91.45,46.98 L95.52,43.09 C95.89,42.74 96.36,42.54 96.84,42.54 L112.37,42.54 C113.95,42.54 115.43,42.24 116.47,41.97 C117.23,41.77 117.96,42.42 117.96,43.3 L117.96,52.62 Z" fill="#FFD54F"/>
  <path d="M117.35,42.11 C117.25,42.04 117.14,41.98 117.02,41.95 C117.01,43.97 116.95,45.99 116.95,48.01 C116.95,49.54 116.95,51.07 116.95,52.61 C116.95,52.81 116.84,52.95 116.77,52.97 C115.44,53.33 112.66,53.92 109.02,53.92 L96.84,53.92 C96.62,53.92 96.39,53.82 96.21,53.65 C95.05,52.54 93.89,51.43 92.73,50.32 C92.21,49.82 91.67,49.38 91.36,48.7 C91.17,48.27 91.08,47.79 91.14,47.32 C91.13,47.43 90.98,47.58 90.94,47.69 C90.89,47.81 90.86,47.95 90.82,48.07 C90.75,48.34 90.72,48.63 90.74,48.91 C90.78,49.49 91.02,50.06 91.45,50.47 L95.52,54.36 C95.89,54.71 96.36,54.91 96.84,54.91 L109.02,54.91 C112.77,54.91 115.63,54.3 117.02,53.93 C117.57,53.78 117.95,53.23 117.95,52.6 L117.95,43.27 C117.95,42.85 117.72,42.37 117.35,42.11 Z" fill="#F3AB47"/>
  <path d="M117.95,95.16 C117.95,95.79 117.57,96.34 117.02,96.49 C115.63,96.86 112.77,97.47 109.02,97.47 L96.84,97.47 C96.36,97.47 95.89,97.28 95.52,96.92 L91.45,93.03 C90.49,92.11 90.49,90.44 91.45,89.52 L95.52,85.63 C95.89,85.28 96.36,85.08 96.84,85.08 L112.37,85.08 C113.95,85.08 115.43,84.78 116.47,84.51 C117.23,84.31 117.96,84.96 117.96,85.84 L117.96,95.16 Z" fill="#0091EA"/>
  <path d="M117.35,84.64 C117.25,84.57 117.14,84.51 117.02,84.48 C117.01,86.5 116.95,88.52 116.95,90.54 C116.95,92.07 116.95,93.6 116.95,95.14 C116.95,95.34 116.84,95.48 116.77,95.5 C115.44,95.86 112.66,96.45 109.02,96.45 L96.84,96.45 C96.62,96.45 96.39,96.35 96.21,96.18 C95.05,95.07 93.89,93.96 92.73,92.85 C92.21,92.35 91.67,91.91 91.36,91.23 C91.17,90.8 91.08,90.32 91.14,89.85 C91.13,89.96 90.98,90.11 90.94,90.22 C90.89,90.34 90.86,90.48 90.82,90.6 C90.75,90.87 90.72,91.16 90.74,91.44 C90.78,92.02 91.02,92.59 91.45,93 L95.52,96.89 C95.89,97.24 96.36,97.44 96.84,97.44 L109.02,97.44 C112.77,97.44 115.63,96.83 117.02,96.46 C117.57,96.31 117.95,95.76 117.95,95.13 C117.95,95.13 117.95,85.8 117.95,85.8 C117.95,85.38 117.72,84.91 117.35,84.64 Z" fill="#01579B"/>
  <path d="M17.13,10.79 C17.12,10.88 28.18,10.96 28.18,11.05 L28.94,38.84 L28.94,117.18 L98.92,117.18 C101.13,117.18 102.92,115.39 102.92,113.18 L102.92,11.05 C102.92,10.96 102.9,10.88 102.89,10.79 L17.13,10.79 Z" fill="#212121" opacity="0.25"/>
  <path d="M95.86,114.13 L18.05,114.13 C15.84,114.13 14.05,112.34 14.05,110.13 L14.05,8 C14.05,5.79 15.84,4 18.05,4 L95.86,4 C98.07,4 99.86,5.79 99.86,8 L99.86,110.13 C99.86,112.34 98.07,114.13 95.86,114.13 Z" fill="#FFFFFF"/>
  <path d="M95.86,7 C96.41,7 96.86,7.45 96.86,8 L96.86,110.13 C96.86,110.68 96.41,111.13 95.86,111.13 L18.05,111.13 C17.5,111.13 17.05,110.68 17.05,110.13 L17.05,8 C17.05,7.45 17.5,7 18.05,7 L95.86,7 M95.86,4 L18.05,4 C15.84,4 14.05,5.79 14.05,8 L14.05,110.13 C14.05,112.34 15.84,114.13 18.05,114.13 L95.86,114.13 C98.07,114.13 99.86,112.34 99.86,110.13 L99.86,8 C99.86,5.79 98.07,4 95.86,4 L95.86,4 Z" fill="#6FBFF0"/>
  <path d="M27.11,28.548 L84.22,28.548 Q86.152,28.548 86.152,30.48 Q86.152,32.412 84.22,32.412 L27.11,32.412 Q25.178,32.412 25.178,30.48 Q25.178,28.548 27.11,28.548 Z" fill="#B0BEC5"/>
  <path d="M27.11,42.318 L84.22,42.318 Q86.152,42.318 86.152,44.25 Q86.152,46.182 84.22,46.182 L27.11,46.182 Q25.178,46.182 25.178,44.25 Q25.178,42.318 27.11,42.318 Z" fill="#B0BEC5"/>
  <path d="M27.11,56.098 L84.22,56.098 Q86.152,56.098 86.152,58.03 Q86.152,59.962 84.22,59.962 L27.11,59.962 Q25.178,59.962 25.178,58.03 Q25.178,56.098 27.11,56.098 Z" fill="#B0BEC5"/>
  <path d="M27.11,69.878 L84.22,69.878 Q86.152,69.878 86.152,71.81 Q86.152,73.742 84.22,73.742 L27.11,73.742 Q25.178,73.742 25.178,71.81 Q25.178,69.878 27.11,69.878 Z" fill="#B0BEC5"/>
  <path d="M27.11,83.648 L51.54,83.648 Q53.472,83.648 53.472,85.58 Q53.472,87.512 51.54,87.512 L27.11,87.512 Q25.178,87.512 25.178,85.58 Q25.178,83.648 27.11,83.648 Z" fill="#B0BEC5"/>
  <path d="M116.09,33.46 C116.09,34.09 115.71,34.64 115.16,34.79 C113.77,35.16 110.91,35.77 107.16,35.77 L94.98,35.77 C94.5,35.77 94.03,35.58 93.66,35.22 L89.59,31.33 C88.63,30.41 88.63,28.74 89.59,27.82 L93.66,23.93 C94.03,23.58 94.5,23.38 94.98,23.38 L110.51,23.38 C112.09,23.38 113.57,23.08 114.61,22.81 C115.37,22.61 116.1,23.26 116.1,24.14 L116.1,33.46 Z" fill="#F44336"/>
  <path d="M116.09,76 C116.09,76.63 115.71,77.18 115.16,77.33 C113.77,77.7 110.91,78.31 107.16,78.31 L94.98,78.31 C94.5,78.31 94.03,78.12 93.66,77.76 L89.59,73.87 C88.63,72.95 88.63,71.28 89.59,70.36 L93.66,66.47 C94.03,66.12 94.5,65.92 94.98,65.92 L110.51,65.92 C112.09,65.92 113.57,65.62 114.61,65.35 C115.37,65.15 116.1,65.8 116.1,66.68 L116.1,76 Z" fill="#9CCC65"/>
  <path d="M115.5,22.96 C115.4,22.89 115.29,22.83 115.17,22.8 C115.16,24.82 115.1,26.84 115.1,28.86 C115.1,30.39 115.1,31.92 115.1,33.46 C115.1,33.66 114.99,33.8 114.92,33.82 C113.59,34.18 110.81,34.77 107.17,34.77 L94.98,34.77 C94.76,34.77 94.53,34.67 94.35,34.5 C93.19,33.39 92.03,32.28 90.87,31.17 C90.35,30.67 89.81,30.23 89.5,29.55 C89.31,29.12 89.22,28.64 89.28,28.17 C89.27,28.28 89.12,28.43 89.08,28.54 C89.03,28.66 89,28.8 88.96,28.92 C88.89,29.19 88.86,29.48 88.88,29.76 C88.92,30.34 89.16,30.91 89.59,31.32 L93.66,35.21 C94.03,35.56 94.5,35.76 94.98,35.76 L107.16,35.76 C110.91,35.76 113.77,35.15 115.16,34.78 C115.71,34.63 116.09,34.08 116.09,33.45 C116.09,33.45 116.09,24.12 116.09,24.12 C116.09,23.7 115.86,23.22 115.5,22.96 Z" fill="#C62828"/>
  <path d="M115.5,65.48 C115.4,65.41 115.29,65.35 115.17,65.32 C115.16,67.34 115.1,69.36 115.1,71.38 C115.1,72.91 115.1,74.44 115.1,75.98 C115.1,76.18 114.99,76.32 114.92,76.34 C113.59,76.7 110.81,77.29 107.17,77.29 L94.98,77.29 C94.76,77.29 94.53,77.19 94.35,77.02 C93.19,75.91 92.03,74.8 90.87,73.69 C90.35,73.19 89.81,72.75 89.5,72.07 C89.31,71.64 89.22,71.16 89.28,70.69 C89.27,70.8 89.12,70.95 89.08,71.06 C89.03,71.18 89,71.32 88.96,71.44 C88.89,71.71 88.86,72 88.88,72.28 C88.92,72.86 89.16,73.43 89.59,73.84 L93.66,77.73 C94.03,78.08 94.5,78.28 94.98,78.28 L107.16,78.28 C110.91,78.28 113.77,77.67 115.16,77.3 C115.71,77.15 116.09,76.6 116.09,75.97 L116.09,66.64 C116.09,66.22 115.86,65.74 115.5,65.48 Z" fill="#7CB342"/>
</svg>
